X:110
T:Steyrer Tanz in D, nr. 21
C:traditionell
R:Steirer
A:Hallstatt, Salzkammergut
B:Corpus Musicae Popularis Austriacae (COMPA), 5.Band: J.M.Schmalnauer " Tanz Musik", Verlag Boehlau, Wien 1996
S:manuscript des Johann Michael Schmalnauer um 1820
N:in der quelle in D with a note for transposition to A
Z:abc transcription Simon Wascher
F:http://simonwascher.info/TradArchiv/
M:3/4
L:1/8
K:F
V:1
%violino 1mo
|:\
(df) (Bd)(fB) | AcfA c2 | GBeGBe | fAcf A2 |\
(df) (Bd)(fB) | AcfA c2 | GBeGBe | f4 :|
V:2
%violino 2do
|:\
bd'fbd'b | fad'f a2 | egbceg | afac' f2 |\
bd'fbd'b | fad'f a2 | egbceg | A4 :|
